X:1
T:Polska i Dm 
T:ur Gabriel Fredriek Johanssons notbok
M:3/4
L:1/16
B:http://www.smus.se/earkiv/fmk/browselarge.php?lang=sw&katalogid=M+41+II&bildnr=00041
B:Gabriel Fredriek Johanssons notbok
R:Slängpolska
Z:Nils L
O:Småland, Sjönäs
K:Ddor
d2e2 fefg a2f2 | a2fa g2f2 e2d2 | ^c2d2 edcB A4 | d2e2 fefg a2f2 | age^c c2d2 d4 ::
A2d2 fede fede | d2ef gfed d^cAc | A2d2 fede fede | d2ef gfed d^cAc |  
d2e2 fefg a2f2 | age^c c2d2 d4 :|

